static/images/onboarding/friendly-illustration.svg

<svg width="360" height="360" fill="none" xmlns="http://www.w3.org/2000/svg"><path opacity=".5" d="M323.684 177.056c-2.707 23.223-20.19 75.193-50.418 109.689-1.579 1.804-3.271 3.608-4.963 5.411-7.783 8.117-16.468 14.881-25.716 19.842-15.34 8.116-32.71 11.047-51.997 5.523-38.913-11.16-53.576-20.292-67.45-39.343-1.015-1.466-2.143-2.931-3.158-4.51-4.737-6.876-9.474-14.993-15.339-24.801-10.603-17.699-24.476-40.697-47.147-71.811-2.143-2.819-3.835-5.75-5.189-8.568-1.128-2.255-2.03-4.509-2.82-6.764-3.496-10.822-2.594-21.645 1.58-32.016 16.693-41.599 85.383-77.222 130.725-90.75 1.128-.339 2.256-.677 3.271-1.015 1.917-.564 3.722-1.015 5.527-1.466 9.587-2.367 19.174-2.592 28.536-.901 37.559 6.764 71.284 43.064 89.782 80.266.451.901.902 1.916 1.353 2.818 5.302 11.048 9.136 22.096 11.505 32.467 2.143 9.47 2.82 18.263 1.918 25.929Z" fill="#F35"/><path opacity=".4" d="m189.277 282.765 30.003-46.414c2.121-3.231 5.857-5.402 9.714-5.646l55.614-2.35c9.642-.609 15.136-11.795 8.433-19.889l-34.819-42.707c-2.918-3.3-3.16-7.156-2.22-10.699l15.272-52.839c2.505-9.45-6.561-18.168-16.395-14.45l-51.416 19.893c-4.17 1.425-7.714.487-10.945-1.631l-46.099-31.156c-8.077-5.297-19.719.47-18.68 10.857l3.073 55.165c.242 3.856-1.445 7.833-4.747 10.752L82.15 186.168c-8.099 6.705-5.01 18.898 4.44 21.398l53.906 13.63c3.544.937 7.209 3.803 8.198 7.224l19.127 51.828c2.967 10.265 15.407 11.028 21.456 2.517Z" fill="#FF6680"/><path opacity=".5" d="M78.727 273.456c8.63-4.981 7.144-23.705-3.321-41.821-10.465-18.117-25.946-28.765-34.577-23.784-8.632 4.981-7.145 23.705 3.32 41.821 10.465 18.117 25.946 28.765 34.578 23.784Z" fill="#F35"/><path d="M219.687 129.595c2.143-.451 3.609-2.593 3.271-4.735-1.466-9.695-3.384-20.292-4.624-26.718-3.271-16.233-31.469-23.11-41.508-4.283-5.414 10.033-2.143 7.215-14.324 26.717-4.399 6.99 2.594 12.288 11.617-1.352 4.963-7.553 5.189-8.117 4.85 3.043-.225 8.343-4.963 21.645-7.895 27.958-3.271 6.764 6.88 7.215 9.813.902 3.835-8.229 6.654-26.492 9.249-26.605 2.819-.113 2.819 18.376 7.106 29.649 3.383 8.793 11.279 8.568 10.038-.225-1.579-11.612-6.768-24.576-4.737-24.915 0 0 6.316 7.215 10.94-1.127 0 0 2.82 2.368 6.204 1.691 0 .113 0 .113 0 0Z" fill="#E4B681"/><path d="m219.125 35.688-11.054 49.828-19.061-1.24-1.467-.112-5.752-45.206c1.128-.339 2.256-.677 3.271-1.015 1.917-.564 3.722-1.015 5.527-1.466 9.7-2.367 19.287-2.48 28.536-.789Z" fill="#E4B681"/><path opacity=".1" d="M174.572 155.524s4.511.112 6.429-4.51c2.03-4.509 3.722-10.709 5.978-19.728 0 0 1.128-4.284 2.481-6.426 0 0-4.173 5.299-6.542 15.783-2.368 10.484-5.639 13.753-8.346 14.881ZM178.407 113.812s-.451-.451-3.722 4.848c-3.384 5.299-7.445 9.357-10.716 9.245 0 0 8.573-6.088 10.49-9.696-.113-.113 2.595-5.298 3.948-4.397ZM189.122 83.713v.676c-.112.79-.225 1.127-.451 1.24-2.368.902-4.737 1.127-7.331 2.48.225-.225 2.481-2.593 6.091-3.833l-5.753-45.206c1.128-.338 2.256-.676 3.271-1.014 1.805 13.753 4.512 38.554 4.173 45.657Z" fill="#000"/><path d="M236.945 153.269c-7.444 3.72-21.318 5.975-28.311 6.426-7.557.451-3.045 9.469 3.835 9.131 9.136-.563 26.393-6.877 27.747-4.622 1.466 2.368-14.776 11.273-22.671 20.405-6.204 7.215-2.143 13.979 5.075 8.68 9.475-6.989 18.385-17.699 19.626-16.121 0 0-3.384 9.019 6.204 9.019 0 0-.79 3.608 1.466 6.2l.113.113c1.466 1.691 3.947 1.917 5.752.564 7.895-5.862 16.242-12.626 21.205-16.797 12.745-10.597 5.188-38.668-16.129-38.555 0 0-15.34-1.128-16.919 1.014-1.579 2.142-6.993 14.543-6.993 14.543Z" fill="#B68554"/><path d="m321.762 151.127-39.138 14.994-.79.338-12.407-25.591-.789-1.691 40.266-23.223c.451.902.903 1.917 1.354 2.819 5.414 11.048 9.249 22.095 11.504 32.354Z" fill="#B68554"/><path opacity=".1" d="M247.21 144.588c-3.046 1.466-8.347 6.765-9.814 8.343 0 0-.112 0 0 0l6.542-8.793c.113-.113.226-.226.452-.113l2.932.451c0-.226 0 0-.112.112ZM205.475 165.219s2.03 3.945 6.993 3.607c4.963-.338 11.166-1.916 20.189-4.171 0 0 4.286-1.127 6.768-.902 0 0-6.655-1.24-17.032 1.804-10.264 2.818-14.55 1.466-16.918-.338ZM310.371 118.773c-12.181 7.102-31.13 18.037-39.251 21.419-.564.225-1.128.451-1.579.564-1.015.338-1.692.451-2.03.451-3.722-1.128-2.707-2.255-8.46-3.608 0 0 1.805 0 4.174.226h.112c1.241.112 2.707.338 4.061.789h.113c.225.112.564.112.789.225.113.113.339.113.451.226l40.267-23.223c.451 1.014.902 1.916 1.353 2.931Z" fill="#000"/><path d="m105.655 137.938-7.445 30.776-.676 2.593-45.23-2.931c-1.128-2.255-2.03-4.51-2.82-6.764-3.496-10.823-2.594-21.645 1.58-32.017l54.14 8.117.451.226Z" fill="#825331"/><path d="M142.765 137.261c-.226-2.254-2.256-3.833-4.512-3.72-9.813.564-20.528 1.578-26.957 2.255-16.468 1.803-25.83 29.31-7.896 40.922 9.588 6.2 6.993 2.818 25.378 16.572 6.655 4.96 12.52-1.579-.338-11.725-7.106-5.636-7.67-5.862 3.384-4.622 8.234 1.015 21.092 6.764 27.183 10.372 6.541 3.833 7.782-6.201 1.804-9.695-7.895-4.622-25.829-8.906-25.716-11.499.113-2.818 18.498-1.127 30.228-4.509 9.136-2.593 9.587-10.485.677-10.034-11.731.564-25.04 4.51-25.266 2.48 0 0 7.783-5.636-.225-10.935 0 .226 2.707-2.367 2.256-5.862 0 .113 0 .113 0 0Z" fill="#825331"/><path opacity=".1" d="M164.533 183.144c-.225-1.466-1.015-3.833-3.835-5.412-4.398-2.367-10.376-4.622-19.174-7.665 0 0-4.173-1.466-6.091-2.932 0 0 4.85 4.623 15.114 7.892 8.46 2.705 11.843 5.524 13.31 8.004l.676.113ZM123.253 176.943s-.451.339 4.512 4.172c4.963 3.833 8.685 8.342 8.234 11.499 0 0-5.414-9.019-8.798-11.274 0 0-4.963-3.044-3.948-4.397ZM104.979 177.845c-4.173-2.142-6.542-5.298-7.218-6.2 0 0 0-.113-.113-.113 0-.113-.113-.113-.113-.113l-45.23-2.931c-1.127-2.254-2.03-4.509-2.82-6.764 24.59 4.961 40.267 5.75 45.907 5.863h2.369c.112.338.225.789.45 1.127 1.918 4.284 6.43 8.793 6.768 9.131Z" fill="#000"/><path d="M134.307 199.264c-2.03-.902-4.399-.112-5.526 1.917-4.625 8.68-9.362 18.263-12.069 24.237-6.993 14.994 11.617 37.315 30.905 28.071 10.264-4.96 6.09-4.509 27.408-13.077 7.67-3.044 5.188-11.499-10.151-5.862-8.572 3.156-9.024 3.495-2.143-5.299 5.188-6.538 16.806-14.43 22.896-17.812 6.655-3.607-1.24-9.92-7.331-6.538-8.008 4.397-21.092 17.361-23.235 16.008-2.369-1.578 8.685-16.459 11.956-28.071 2.594-9.131-3.948-13.528-8.234-5.749-5.64 10.259-9.136 23.787-11.054 22.885 0 0-.789-9.582-9.474-5.524 0-.113-.79-3.72-3.948-5.186 0 .113 0 0 0 0Z" fill="#4C2F19"/><path d="m138.253 255.631-15.114 22.547c-1.015-1.466-2.143-2.932-3.158-4.51-4.737-6.876-9.474-14.993-15.339-24.801l11.166-11.386 19.062 15.444 3.383 2.706Z" fill="#4C2F19"/><path opacity=".1" d="M185.963 205.352s-3.496-2.706-7.895-.226c-4.286 2.481-9.362 6.426-16.467 12.401 0 0-3.497 2.818-5.753 3.72 0 0 6.542-1.691 14.663-8.793 8.008-7.215 12.52-7.779 15.452-7.102ZM157.993 236.692s.112.563 5.865-1.691c5.865-2.255 11.617-3.157 14.099-1.128 0 0-10.49-.112-14.212 1.691.113 0-5.076 2.706-5.752 1.128ZM154.834 249.656c-10.377 7.102-16.58 5.975-16.58 5.975l-15.114 22.547c-1.016-1.466-2.143-2.931-3.159-4.51 7.445-9.808 11.618-15.782 13.535-18.601 1.016-1.465 1.354-2.142 1.354-2.142 5.752.902 19.287-3.043 19.964-3.269Z" fill="#000"/><path d="M192.507 241.314c-1.579 1.578-1.466 4.171 0 5.862 6.767 7.215 14.324 14.768 19.062 19.277 11.956 11.499 39.026 1.015 36.544-20.179-1.353-11.273 8.459-8.68-7.331-25.365-6.317-6.764-15.34-3.607-4.399 5.524 6.203 5.073-.226 7.102-6.317-2.255-4.511-6.989-8.346-20.517-9.474-27.394-1.241-7.44-9.813-2.029-8.572 4.848 1.579 9.018 9.7 25.477 7.67 27.056-2.256 1.691-12.746-13.416-22.784-20.292-7.783-5.299-14.099-.564-8.121 5.975 7.895 8.567 19.626 16.346 18.159 17.811 0 0-9.361-2.367-8.346 7.215 0-.338-3.722-.676-6.091 1.917.113-.113 0-.113 0 0Z" fill="#FDDBB4"/><path d="M273.267 286.745c-1.579 1.804-3.271 3.608-4.962 5.412-7.783 8.116-16.468 14.88-25.717 19.841l-26.393-42.501 29.551-21.645 2.256-1.691 25.265 40.584Z" fill="#FDDBB4"/><path opacity=".1" d="M238.864 230.154s1.128-1.015-2.594-4.172c-3.722-3.043-5.189-5.862-4.85-7.215 0 0 1.466 2.931 5.527 6.088 4.06 3.157 1.917 5.299 1.917 5.299ZM214.388 194.417s-4.061 2.593-1.692 10.146c2.481 7.553 5.64 16.459 5.64 16.459s2.03 5.524 1.466 7.215c0 0 1.353-5.073-2.594-16.459-3.835-11.274-2.82-17.361-2.82-17.361ZM273.265 286.745c-1.579 1.804-.677.902-2.369 2.593-11.505-19.728-17.934-29.649-21.881-36.638-1.241-2.142-2.82-3.382-3.159-4.848-1.353-4.847-.225-6.2.79-7.44 2.369-3.269 2.594-8.793 2.594-8.793.113.225.451.789.677 1.803v.226c.113.789.113 1.804-.226 3.044v.112c-.112.339-.225.677-.338.902 0 .113-.113.226-.113.451v.113c-.225.451-.338 1.015-.451 1.465v.226a15.227 15.227 0 0 0-.564 4.171v2.142l25.04 40.471Z" fill="#000"/><path d="m190.815 165.219 3.158 6.087c.226.451.677.79 1.128.79l6.768.901c1.24.113 1.692 1.691.902 2.593l-4.85 4.848c-.338.338-.451.902-.451 1.353l1.241 6.764c.225 1.24-1.016 2.142-2.143 1.578l-6.091-3.044c-.451-.225-1.015-.225-1.354 0l-5.978 3.269c-1.128.564-2.368-.338-2.255-1.578l1.015-6.764c.112-.451-.113-1.015-.451-1.353l-4.963-4.735c-.903-.901-.451-2.367.789-2.592l6.768-1.128c.451-.112.902-.338 1.128-.789l2.932-6.2a1.506 1.506 0 0 1 2.707 0Z" fill="#FFBF00"/></svg>

<svg width="360" height="360" viewBox="0 0 360 360" fill="none" xmlns="http://www.w3.org/2000/svg">
<path opacity="0.5" d="M323.684 177.056C320.977 200.279 303.494 252.249 273.266 286.745C271.687 288.549 269.995 290.353 268.303 292.156C260.52 300.273 251.835 307.037 242.587 311.998C227.247 320.114 209.877 323.045 190.59 317.521C151.677 306.361 137.014 297.229 123.14 278.178C122.125 276.712 120.997 275.247 119.982 273.668C115.245 266.792 110.508 258.675 104.643 248.867C94.0401 231.168 80.1668 208.17 57.4957 177.056C55.3526 174.237 53.6608 171.306 52.3073 168.488C51.1794 166.233 50.277 163.979 49.4875 161.724C45.991 150.902 46.8933 140.079 51.0666 129.708C67.7597 88.1092 136.45 52.4855 181.792 38.9575C182.92 38.6193 184.048 38.2811 185.063 37.9429C186.98 37.3792 188.785 36.9283 190.59 36.4774C200.177 34.11 209.764 33.8845 219.126 35.5755C256.685 42.3395 290.41 78.6396 308.908 115.842C309.359 116.743 309.81 117.758 310.261 118.66C315.563 129.708 319.397 140.756 321.766 151.127C323.909 160.597 324.586 169.39 323.684 177.056Z" fill="#FF3355"/>
<path opacity="0.4" d="M189.277 282.765L219.28 236.351C221.401 233.12 225.137 230.949 228.994 230.705L284.608 228.355C294.25 227.746 299.744 216.56 293.041 208.466L258.222 165.759C255.304 162.459 255.062 158.603 256.002 155.06L271.274 102.221C273.779 92.7718 264.713 84.0534 254.879 87.7713L203.463 107.664C199.293 109.089 195.749 108.151 192.518 106.033L146.419 74.8767C138.342 69.5799 126.7 75.3476 127.739 85.7343L130.812 140.899C131.054 144.755 129.367 148.732 126.065 151.651L82.15 186.168C74.0515 192.873 77.1397 205.066 86.5901 207.566L140.496 221.196C144.04 222.133 147.705 224.999 148.694 228.42L167.821 280.248C170.788 290.513 183.228 291.276 189.277 282.765Z" fill="#FF6680"/>
<path opacity="0.5" d="M78.7265 273.456C87.3578 268.475 85.8712 249.751 75.4059 231.635C64.9407 213.518 49.4599 202.87 40.8286 207.851C32.1973 212.832 33.6839 231.556 44.1492 249.672C54.6144 267.789 70.0952 278.437 78.7265 273.456Z" fill="#FF3355"/>
<path d="M219.687 129.595C221.83 129.144 223.296 127.002 222.958 124.86C221.492 115.165 219.574 104.568 218.334 98.1425C215.063 81.909 186.865 75.0322 176.826 93.8587C171.412 103.892 174.683 101.074 162.502 120.576C158.103 127.566 165.096 132.864 174.119 119.224C179.082 111.671 179.308 111.107 178.969 122.267C178.744 130.61 174.006 143.912 171.074 150.225C167.803 156.989 177.954 157.44 180.887 151.127C184.722 142.898 187.541 124.635 190.136 124.522C192.955 124.409 192.955 142.898 197.242 154.171C200.625 162.964 208.521 162.739 207.28 153.946C205.701 142.334 200.512 129.37 202.543 129.031C202.543 129.031 208.859 136.246 213.483 127.904C213.483 127.904 216.303 130.272 219.687 129.595C219.687 129.708 219.687 129.708 219.687 129.595Z" fill="#E4B681"/>
<path d="M219.125 35.6882L208.071 85.5163L189.01 84.2762L187.543 84.1635L181.791 38.9575C182.919 38.6193 184.047 38.2811 185.062 37.9429C186.979 37.3792 188.784 36.9283 190.589 36.4773C200.289 34.1099 209.876 33.9972 219.125 35.6882Z" fill="#E4B681"/>
<path opacity="0.1" d="M174.572 155.524C174.572 155.524 179.083 155.636 181.001 151.014C183.031 146.505 184.723 140.305 186.979 131.286C186.979 131.286 188.107 127.002 189.46 124.86C189.46 124.86 185.287 130.159 182.918 140.643C180.55 151.127 177.279 154.396 174.572 155.524Z" fill="black"/>
<path opacity="0.1" d="M178.407 113.812C178.407 113.812 177.956 113.361 174.685 118.66C171.301 123.959 167.24 128.017 163.969 127.905C163.969 127.905 172.542 121.817 174.459 118.209C174.346 118.096 177.054 112.911 178.407 113.812Z" fill="black"/>
<path opacity="0.1" d="M189.122 83.7126C189.122 83.9381 189.122 84.1635 189.122 84.389C189.01 85.1781 188.897 85.5163 188.671 85.6291C186.303 86.5309 183.934 86.7564 181.34 88.1092C181.565 87.8837 183.821 85.5163 187.431 84.2763L181.678 39.0702C182.806 38.732 183.934 38.3938 184.949 38.0556C186.754 51.8091 189.461 76.6104 189.122 83.7126Z" fill="black"/>
<path d="M236.945 153.269C229.501 156.989 215.627 159.244 208.634 159.695C201.077 160.146 205.589 169.164 212.469 168.826C221.605 168.263 238.862 161.949 240.216 164.204C241.682 166.572 225.44 175.477 217.545 184.609C211.341 191.824 215.402 198.588 222.62 193.289C232.095 186.3 241.005 175.59 242.246 177.168C242.246 177.168 238.862 186.187 248.45 186.187C248.45 186.187 247.66 189.795 249.916 192.387C249.916 192.387 249.916 192.387 250.029 192.5C251.495 194.191 253.976 194.417 255.781 193.064C263.676 187.202 272.023 180.438 276.986 176.267C289.731 165.67 282.174 137.599 260.857 137.712C260.857 137.712 245.517 136.584 243.938 138.726C242.359 140.868 236.945 153.269 236.945 153.269Z" fill="#B68554"/>
<path d="M321.762 151.127L282.624 166.121L281.834 166.459L269.427 140.868L268.638 139.177L308.904 115.954C309.355 116.856 309.807 117.871 310.258 118.773C315.672 129.821 319.507 140.868 321.762 151.127Z" fill="#B68554"/>
<path opacity="0.1" d="M247.21 144.588C244.164 146.054 238.863 151.353 237.396 152.931C237.396 152.931 237.284 152.931 237.396 152.931L243.938 144.138C244.051 144.025 244.164 143.912 244.39 144.025L247.322 144.476C247.322 144.25 247.322 144.476 247.21 144.588Z" fill="black"/>
<path opacity="0.1" d="M205.475 165.219C205.475 165.219 207.505 169.164 212.468 168.826C217.431 168.488 223.634 166.91 232.657 164.655C232.657 164.655 236.943 163.528 239.425 163.753C239.425 163.753 232.77 162.513 222.393 165.557C212.129 168.375 207.843 167.023 205.475 165.219Z" fill="black"/>
<path opacity="0.1" d="M310.371 118.773C298.19 125.875 279.241 136.81 271.12 140.192C270.556 140.417 269.992 140.643 269.541 140.756C268.526 141.094 267.849 141.207 267.511 141.207C263.789 140.079 264.804 138.952 259.051 137.599C259.051 137.599 260.856 137.599 263.225 137.825C263.225 137.825 263.225 137.825 263.337 137.825C264.578 137.937 266.044 138.163 267.398 138.614H267.511C267.736 138.726 268.075 138.726 268.3 138.839C268.413 138.952 268.639 138.952 268.751 139.065L309.018 115.842C309.469 116.856 309.92 117.758 310.371 118.773Z" fill="black"/>
<path d="M105.655 137.938L98.2105 168.714L97.5337 171.307L52.3043 168.376C51.1764 166.121 50.2741 163.866 49.4846 161.612C45.988 150.789 46.8904 139.967 51.0636 129.595L105.204 137.712L105.655 137.938Z" fill="#825331"/>
<path d="M142.765 137.261C142.539 135.007 140.509 133.428 138.253 133.541C128.44 134.105 117.725 135.119 111.296 135.796C94.8281 137.599 85.4665 165.106 103.4 176.718C112.988 182.918 110.393 179.536 128.778 193.29C135.433 198.25 141.298 191.711 128.44 181.565C121.334 175.929 120.77 175.703 131.824 176.943C140.058 177.958 152.916 183.707 159.007 187.315C165.548 191.148 166.789 181.114 160.811 177.62C152.916 172.998 134.982 168.714 135.095 166.121C135.208 163.303 153.593 164.994 165.323 161.612C174.459 159.019 174.91 151.127 166 151.578C154.269 152.142 140.96 156.088 140.734 154.058C140.734 154.058 148.517 148.422 140.509 143.123C140.509 143.349 143.216 140.756 142.765 137.261C142.765 137.374 142.765 137.374 142.765 137.261Z" fill="#825331"/>
<path opacity="0.1" d="M164.533 183.144C164.308 181.678 163.518 179.311 160.698 177.732C156.3 175.365 150.322 173.11 141.524 170.067C141.524 170.067 137.351 168.601 135.433 167.135C135.433 167.135 140.283 171.758 150.547 175.027C159.007 177.732 162.39 180.551 163.857 183.031L164.533 183.144Z" fill="black"/>
<path opacity="0.1" d="M123.253 176.943C123.253 176.943 122.802 177.282 127.765 181.115C132.728 184.948 136.45 189.457 135.999 192.614C135.999 192.614 130.585 183.595 127.201 181.34C127.201 181.34 122.238 178.296 123.253 176.943Z" fill="black"/>
<path opacity="0.1" d="M104.979 177.845C100.806 175.703 98.4373 172.547 97.7606 171.645C97.7606 171.645 97.7606 171.532 97.6478 171.532C97.6478 171.419 97.535 171.419 97.535 171.419L52.3056 168.488C51.1777 166.234 50.2754 163.979 49.4858 161.724C74.0744 166.685 89.7524 167.474 95.392 167.587C96.971 167.587 97.7606 167.587 97.7606 167.587C97.8734 167.925 97.9862 168.376 98.2118 168.714C100.129 172.998 104.641 177.507 104.979 177.845Z" fill="black"/>
<path d="M134.307 199.264C132.277 198.362 129.908 199.152 128.781 201.181C124.156 209.861 119.419 219.444 116.712 225.418C109.719 240.412 128.329 262.733 147.617 253.489C157.881 248.529 153.707 248.98 175.025 240.412C182.695 237.368 180.213 228.913 164.874 234.55C156.302 237.706 155.85 238.045 162.731 229.251C167.919 222.713 179.537 214.821 185.627 211.439C192.282 207.832 184.387 201.519 178.296 204.901C170.288 209.298 157.204 222.262 155.061 220.909C152.692 219.331 163.746 204.45 167.017 192.838C169.611 183.707 163.069 179.31 158.783 187.089C153.143 197.348 149.647 210.876 147.729 209.974C147.729 209.974 146.94 200.392 138.255 204.45C138.255 204.337 137.465 200.73 134.307 199.264C134.307 199.377 134.307 199.264 134.307 199.264Z" fill="#4C2F19"/>
<path d="M138.253 255.631L123.139 278.178C122.124 276.712 120.996 275.246 119.981 273.668C115.244 266.792 110.507 258.675 104.642 248.867L115.808 237.481L134.87 252.925L138.253 255.631Z" fill="#4C2F19"/>
<path opacity="0.1" d="M185.963 205.352C185.963 205.352 182.467 202.646 178.068 205.126C173.782 207.607 168.706 211.552 161.601 217.527C161.601 217.527 158.104 220.345 155.848 221.247C155.848 221.247 162.39 219.556 170.511 212.454C178.519 205.239 183.031 204.675 185.963 205.352Z" fill="black"/>
<path opacity="0.1" d="M157.993 236.692C157.993 236.692 158.105 237.255 163.858 235.001C169.723 232.746 175.475 231.844 177.957 233.873C177.957 233.873 167.467 233.761 163.745 235.564C163.858 235.564 158.669 238.27 157.993 236.692Z" fill="black"/>
<path opacity="0.1" d="M154.834 249.656C144.457 256.758 138.254 255.631 138.254 255.631L123.14 278.178C122.124 276.712 120.997 275.247 119.981 273.668C127.426 263.86 131.599 257.886 133.516 255.067C134.532 253.602 134.87 252.925 134.87 252.925C140.622 253.827 154.157 249.882 154.834 249.656Z" fill="black"/>
<path d="M192.507 241.314C190.928 242.892 191.041 245.485 192.507 247.176C199.274 254.391 206.831 261.944 211.569 266.453C223.525 277.952 250.595 267.468 248.113 246.274C246.76 235.001 256.572 237.594 240.782 220.909C234.465 214.145 225.442 217.302 236.383 226.433C242.586 231.506 236.157 233.535 230.066 224.178C225.555 217.189 221.72 203.661 220.592 196.784C219.351 189.344 210.779 194.755 212.02 201.632C213.599 210.65 221.72 227.109 219.69 228.688C217.434 230.379 206.944 215.272 196.906 208.396C189.123 203.097 182.807 207.832 188.785 214.371C196.68 222.938 208.411 230.717 206.944 232.182C206.944 232.182 197.583 229.815 198.598 239.397C198.598 239.059 194.876 238.721 192.507 241.314C192.62 241.201 192.507 241.201 192.507 241.314Z" fill="#FDDBB4"/>
<path d="M273.267 286.745C271.688 288.549 269.996 290.353 268.305 292.157C260.522 300.273 251.837 307.037 242.588 311.998L216.195 269.497L245.746 247.852L248.002 246.161L273.267 286.745Z" fill="#FDDBB4"/>
<path opacity="0.1" d="M238.864 230.154C238.864 230.154 239.992 229.139 236.27 225.982C232.548 222.939 231.081 220.12 231.42 218.767C231.42 218.767 232.886 221.698 236.947 224.855C241.007 228.012 238.864 230.154 238.864 230.154Z" fill="black"/>
<path opacity="0.1" d="M214.388 194.417C214.388 194.417 210.327 197.01 212.696 204.563C215.177 212.116 218.336 221.022 218.336 221.022C218.336 221.022 220.366 226.546 219.802 228.237C219.802 228.237 221.155 223.164 217.208 211.778C213.373 200.504 214.388 194.417 214.388 194.417Z" fill="black"/>
<path opacity="0.1" d="M273.265 286.745C271.686 288.549 272.588 287.647 270.896 289.338C259.391 269.61 252.962 259.689 249.015 252.7C247.774 250.558 246.195 249.318 245.856 247.852C244.503 243.005 245.631 241.652 246.646 240.412C249.015 237.143 249.24 231.619 249.24 231.619C249.353 231.844 249.691 232.408 249.917 233.422C249.917 233.535 249.917 233.648 249.917 233.648C250.03 234.437 250.03 235.452 249.691 236.692C249.691 236.692 249.691 236.692 249.691 236.804C249.579 237.143 249.466 237.481 249.353 237.706C249.353 237.819 249.24 237.932 249.24 238.157C249.24 238.157 249.24 238.157 249.24 238.27C249.015 238.721 248.902 239.285 248.789 239.735C248.789 239.848 248.789 239.848 248.789 239.961C248.338 241.539 248.225 243.005 248.225 244.132C248.225 244.47 248.225 244.921 248.225 245.372C248.225 245.598 248.225 245.823 248.225 245.936C248.225 246.161 248.225 246.274 248.225 246.274L273.265 286.745Z" fill="black"/>
<path d="M190.815 165.219L193.973 171.306C194.199 171.757 194.65 172.096 195.101 172.096L201.869 172.997C203.109 173.11 203.561 174.688 202.771 175.59L197.921 180.438C197.583 180.776 197.47 181.34 197.47 181.791L198.711 188.555C198.936 189.795 197.695 190.697 196.568 190.133L190.477 187.089C190.026 186.864 189.462 186.864 189.123 187.089L183.145 190.358C182.017 190.922 180.777 190.02 180.89 188.78L181.905 182.016C182.017 181.565 181.792 181.001 181.454 180.663L176.491 175.928C175.588 175.027 176.04 173.561 177.28 173.336L184.048 172.208C184.499 172.096 184.95 171.87 185.176 171.419L188.108 165.219C188.672 164.091 190.251 164.091 190.815 165.219Z" fill="#FFBF00"/>
</svg>
